dist/img/btn320.svg

<svg width="79" height="30" viewBox="0 0 79 30" fill="none" xmlns="http://www.w3.org/2000/svg">
<rect width="79" height="30" rx="4" fill="#3670C7"/>
<path d="M41.044 10.402V19H40.024V12.682C40.024 12.598 40.026 12.508 40.03 12.412C40.038 12.316 40.046 12.218 40.054 12.118L37.102 17.494C37.01 17.674 36.87 17.764 36.682 17.764H36.514C36.326 17.764 36.186 17.674 36.094 17.494L33.082 12.094C33.106 12.306 33.118 12.502 33.118 12.682V19H32.098V10.402H32.956C33.06 10.402 33.14 10.412 33.196 10.432C33.252 10.452 33.306 10.508 33.358 10.6L36.328 15.892C36.376 15.988 36.422 16.088 36.466 16.192C36.514 16.296 36.558 16.402 36.598 16.51C36.638 16.402 36.68 16.296 36.724 16.192C36.768 16.084 36.816 15.982 36.868 15.886L39.784 10.6C39.832 10.508 39.884 10.452 39.94 10.432C40 10.412 40.082 10.402 40.186 10.402H41.044ZM46.871 15.298C46.871 15.05 46.835 14.824 46.763 14.62C46.695 14.412 46.593 14.234 46.457 14.086C46.325 13.934 46.163 13.818 45.971 13.738C45.779 13.654 45.561 13.612 45.317 13.612C44.805 13.612 44.399 13.762 44.099 14.062C43.803 14.358 43.619 14.77 43.547 15.298H46.871ZM47.735 18.148C47.603 18.308 47.445 18.448 47.261 18.568C47.077 18.684 46.879 18.78 46.667 18.856C46.459 18.932 46.243 18.988 46.019 19.024C45.795 19.064 45.573 19.084 45.353 19.084C44.933 19.084 44.545 19.014 44.189 18.874C43.837 18.73 43.531 18.522 43.271 18.25C43.015 17.974 42.815 17.634 42.671 17.23C42.527 16.826 42.455 16.362 42.455 15.838C42.455 15.414 42.519 15.018 42.647 14.65C42.779 14.282 42.967 13.964 43.211 13.696C43.455 13.424 43.753 13.212 44.105 13.06C44.457 12.904 44.853 12.826 45.293 12.826C45.657 12.826 45.993 12.888 46.301 13.012C46.613 13.132 46.881 13.308 47.105 13.54C47.333 13.768 47.511 14.052 47.639 14.392C47.767 14.728 47.831 15.112 47.831 15.544C47.831 15.712 47.813 15.824 47.777 15.88C47.741 15.936 47.673 15.964 47.573 15.964H43.511C43.523 16.348 43.575 16.682 43.667 16.966C43.763 17.25 43.895 17.488 44.063 17.68C44.231 17.868 44.431 18.01 44.663 18.106C44.895 18.198 45.155 18.244 45.443 18.244C45.711 18.244 45.941 18.214 46.133 18.154C46.329 18.09 46.497 18.022 46.637 17.95C46.777 17.878 46.893 17.812 46.985 17.752C47.081 17.688 47.163 17.656 47.231 17.656C47.319 17.656 47.387 17.69 47.435 17.758L47.735 18.148ZM54.2069 12.922V19H53.1329V16.156H50.2169V19H49.1429V12.922H50.2169V15.346H53.1329V12.922H54.2069ZM61.1726 18.25C61.7326 18.25 62.1506 18.05 62.4266 17.65C62.7026 17.246 62.8406 16.684 62.8406 15.964C62.8406 15.24 62.7026 14.676 62.4266 14.272C62.1506 13.868 61.7326 13.666 61.1726 13.666C60.6126 13.666 60.1946 13.868 59.9186 14.272C59.6426 14.676 59.5046 15.24 59.5046 15.964C59.5046 16.684 59.6426 17.246 59.9186 17.65C60.1946 18.05 60.6126 18.25 61.1726 18.25ZM58.4546 15.544C58.4906 15.128 58.5766 14.752 58.7126 14.416C58.8526 14.08 59.0386 13.794 59.2706 13.558C59.5066 13.322 59.7826 13.142 60.0986 13.018C60.4186 12.89 60.7766 12.826 61.1726 12.826C61.5966 12.826 61.9786 12.9 62.3186 13.048C62.6626 13.196 62.9546 13.406 63.1946 13.678C63.4346 13.95 63.6186 14.28 63.7466 14.668C63.8786 15.052 63.9446 15.482 63.9446 15.958C63.9446 16.438 63.8786 16.87 63.7466 17.254C63.6146 17.638 63.4266 17.966 63.1826 18.238C62.9386 18.51 62.6466 18.72 62.3066 18.868C61.9666 19.012 61.5886 19.084 61.1726 19.084C60.7686 19.084 60.4046 19.02 60.0806 18.892C59.7606 18.764 59.4846 18.582 59.2526 18.346C59.0206 18.106 58.8346 17.816 58.6946 17.476C58.5586 17.136 58.4766 16.752 58.4486 16.324H56.9786V19H55.9046V12.922H56.9786V15.544H58.4546Z" fill="white"/>
<path d="M16.75 18.5H20.25V17.3333H16.75V18.5ZM16.75 11.5V12.6667H27.25V11.5H16.75ZM16.75 15.5833H23.75V14.4167H16.75V15.5833Z" fill="white"/>
</svg>

<svg width="79" height="30" fill="none" xmlns="http://www.w3.org/2000/svg"><rect width="79" height="30" rx="4" fill="#3670C7"/><path d="M41.044 10.402V19h-1.02v-6.318c0-.084.002-.174.006-.27l.024-.294-2.952 5.376c-.092.18-.232.27-.42.27h-.168c-.188 0-.328-.09-.42-.27l-3.012-5.4c.024.212.036.408.036.588V19h-1.02v-8.598h.858c.104 0 .184.01.24.03.056.02.11.076.162.168l2.97 5.292c.048.096.094.196.138.3.048.104.092.21.132.318.04-.108.082-.214.126-.318.044-.108.092-.21.144-.306l2.916-5.286c.048-.092.1-.148.156-.168.06-.02.142-.03.246-.03h.858Zm5.827 4.896c0-.248-.036-.474-.108-.678a1.437 1.437 0 0 0-.306-.534 1.292 1.292 0 0 0-.486-.348 1.616 1.616 0 0 0-.654-.126c-.512 0-.918.15-1.218.45-.296.296-.48.708-.552 1.236h3.324Zm.864 2.85c-.132.16-.29.3-.474.42a3.022 3.022 0 0 1-.594.288 3.503 3.503 0 0 1-.648.168c-.224.04-.446.06-.666.06-.42 0-.808-.07-1.164-.21a2.636 2.636 0 0 1-.918-.624 2.919 2.919 0 0 1-.6-1.02 4.135 4.135 0 0 1-.216-1.392c0-.424.064-.82.192-1.188.132-.368.32-.686.564-.954.244-.272.542-.484.894-.636a2.902 2.902 0 0 1 1.188-.234c.364 0 .7.062 1.008.186.312.12.58.296.804.528.228.228.406.512.534.852.128.336.192.72.192 1.152 0 .168-.018.28-.054.336-.036.056-.104.084-.204.084h-4.062c.012.384.064.718.156 1.002.096.284.228.522.396.714.168.188.368.33.6.426a2.1 2.1 0 0 0 .78.138c.268 0 .498-.03.69-.09a3.456 3.456 0 0 0 .852-.402.47.47 0 0 1 .246-.096c.088 0 .156.034.204.102l.3.39Zm6.472-5.226V19h-1.074v-2.844h-2.916V19h-1.074v-6.078h1.074v2.424h2.916v-2.424h1.074Zm6.966 5.328c.56 0 .978-.2 1.254-.6.276-.404.414-.966.414-1.686 0-.724-.138-1.288-.414-1.692-.276-.404-.694-.606-1.254-.606s-.978.202-1.254.606c-.276.404-.414.968-.414 1.692 0 .72.138 1.282.414 1.686.276.4.694.6 1.254.6Zm-2.718-2.706c.036-.416.122-.792.258-1.128.14-.336.326-.622.558-.858.236-.236.512-.416.828-.54a2.87 2.87 0 0 1 1.074-.192c.424 0 .806.074 1.146.222.344.148.636.358.876.63s.424.602.552.99c.132.384.198.814.198 1.29 0 .48-.066.912-.198 1.296s-.32.712-.564.984a2.506 2.506 0 0 1-.876.63 2.88 2.88 0 0 1-1.134.216 2.95 2.95 0 0 1-1.092-.192 2.391 2.391 0 0 1-.828-.546 2.732 2.732 0 0 1-.558-.87 3.748 3.748 0 0 1-.246-1.152h-1.47V19h-1.074v-6.078h1.074v2.622h1.476ZM16.75 18.5h3.5v-1.167h-3.5V18.5Zm0-7v1.167h10.5V11.5h-10.5Zm0 4.083h7v-1.166h-7v1.166Z" fill="#fff"/></svg>
